!!!COM: Schubert, Franz
!!!CNT: Deutscher
!!!TXO: Deutsch
!!!LYR: Friedrich von Schiller
!!!OTL: "Der Ju2ngling am Bach"
!!!OPS: Op. 87
!!!ONM: No. 3
!!!ODT: 1819/
!!NB: Vocal melody only encoded.
!!NB: Original key: c minor
**kern	**silbe
*clefG2	*
*k[f#c#]	*
*M2/4	*
*MM[Massig]	*
=5	=5
4r	.
{8.f#	{An
16b	der
=6	=6
16a	Quel-
16g	|
8f#	-le
16f#	sass
16dd	|
16cc#	der
16b	|
=7	=7
16a	Kna-
16g	|
8f#}	-be,}
{8.b	{Blu-
16b	-men
=8	=8
bq	wand
8.a	|
16a	er
16g	sich
16f#	|
16g	zum
16a	|
=9	=9
8g	Kranz,
8f#}	|}
{8dd	{Blu-
16cc#	-men
16b	|
=10	=10
16b	wand
16a	|
16g	er
16f#	|
16a	sich
16e	|
16g	zum
16f#	|
=11	=11
4d}	Kranz,}
8r	.
{16f#	{und
16f#	er
=12	=12
8.a#	sah
16a#	sie
8.b	fort-
16b	-ge-
=13	=13
ddq	-ris-
8cc#	|
8cc#}	-sen,}
8r	.
{16cc#	{trei-
16cc#	-ben
=14	=14
cc#q	in
8ee	|
16dd#	der
16cc#	|
16b#	Wel-
16a	|
16g#	-len
16b#	|
=15	=15
4cc#}	Tanz,}
8r	.
{16cc#	{trei-
16cc#	-ben
=16	=16
16cc#	in
16ee	|
16dd#	der
16cc#	|
16b#	Wel-
16a	|
16g#	-len
16b#	|
=17	=17
4cc#}	Tanz.}
8r	.
{16.cc#	{Und
32b	so
=18	=18
8.a#	flie-
16b	-hen
8.cc#	mei-
16dd	-ne
=19	=19
cc#q	Ta-
8b	|
8b}	-ge,}
8r	.
{16b	{wie
16b	die
=20	=20
8.ee	Quel-
16dd	-le,
8.cc#	rast-
16dd	-los
=21	=21
8ee	hin!
8dd}	|}
8r	.
{16dd	{Und
16dd	so
=22	=22
8.ccn	blei-
16d#	-chet
8.d#	mei-
16cc	-ne
=23	=23
8b	Ju-
8e}	-gend,}
8r	.
{16e	{wie
16e	die
=24	=24
8.f#	Kra2n-
16f#	-ze
8.a#	schnell
16cc#	ver-
=25	=25
eeq	-blu2h'n,
4.dd}	|}
{16cc#	{wie
16b	die
=26	=26
16f#	Kra2n-
16dd	|
16cc#	-ze
16b	|
16a#	schnell
16g	|
16f#	ver-
16a#	|
=27	=27
4b}	-blu2h'n.}
4r	.
=28	=28
2r	.
=29	=29
2r	.
=30	=30
2r	.
=31	=31
2r	.
=32	=32
4r	.
{8.f#	{Fra-
16b	-get
=33	=33
16a	nicht,
16g	|
8f#	wa-
16f#	-rum
16dd	|
16cc#	ich
16b	|
=34	=34
16a	trau-
16g	|
8f#}	-re}
{8.b	{in
16b	des
=35	=35
bq	Le-
8.a	|
16a	-bens
16g	Blu2-
16f#	|
16g	-ten-
16a	|
=36	=36
8g	-zeit,
8f#}	|}
{8dd	{in
16cc#	des
16b	|
=37	=37
16b	Le-
16a	|
16g	-bens
16f#	|
16a	Blu2-
16e	|
16g	-ten-
16f#	|
=38	=38
4d}	-zeit!}
8r	.
{16f#	{Al-
16f#	-les
=39	=39
8.b-	frau-
16b-	-et
8.bn	sich
16b	und
=40	=40
ddq	hof-
8cc#	|
8cc#}	-fet,}
8r	.
{16cc#	{wenn
16cc#	der
=41	=41
cc#q	Fru2h-
8ee	|
16dd	-ling
16cc#	|
16b#	sich
16a	|
16g#	er-
16b#	|
=42	=42
4cc#}	-neut,}
8r	.
{16cc#	{wenn
16cc#	der
=43	=43
16cc#	Fru2h-
16ee	|
16dd#	-ling
16cc#	|
16b#	sich
16a	|
16g#	er-
16b#	|
=44	=44
4cc#}	-neut.}
8r	.
{16.cc#	{A-
32b	-ber
=45	=45
8.a#	die-
16b	-se
8.cc#	tau-
16dd	-send
=46	=46
cc#q	Stim-
8b	|
8b}	-men}
8r	.
{16b	{der
16b	er-
=47	=47
8.ee	-wa-
16dd	-chen-
8.cc#	-den
16dd	Na-
=48	=48
8ee	-tur
8dd}	|}
8r	.
{16dd	{weck-
16dd	-en
=49	=49
8.ccn	in
16d#	dem
8.d#	tie-
16cc	-fen
=50	=50
8b	Bu-
8e}	-sen}
8r	.
{16e	{mir
16e	den
=51	=51
8.f#	schwe-
16f#	-ren
8.a#	Kum-
16cc#	-mer
=52	=52
eeq	nur,
4.dd}	|}
{16cc#	{mir
16b	den
=53	=53
16f#	schwe-
16dd	|
16cc#	-ren
16b	|
16a#	Kum-
16g	|
16f#	-mer
16b-	|
=54	=54
4b}	nur.}
4r	.
=55	=55
2r	.
=56	=56
2r	.
=57	=57
2r	.
=58	=58
2r	.
=59	=59
4r	.
{8.f#	{Was
16b	soll
=60	=60
16a	mir
16g	|
8f#	die
16f#	Freu-
16dd	|
16cc#	-de
16b	|
=61	=61
16a	from-
16g	|
8f#}	-men,}
{8.b	{die
16b	der
=62	=62
bq	scho2-
8.a	|
16a	-ne
16g	Lenz
16f#	|
16g	mir
16a	|
=63	=63
8g	beut,
8f#}	|}
{8dd	{die
16cc#	der
16b	|
=64	=64
16b	scho2-
16a	|
16g	-ne
16f#	|
16a	Lenz
16e	|
16g	mir
16f#	|
=65	=65
4d}	beut?}
4r	.
=66	=66
{8a#	{Ei-
16a#	-ne
16a#	nur
8b	ist's,
16b	die
16b	ich
=67	=67
ddq	su-
8cc#	|
8cc#}	-che,}
8r	.
{16cc#	{sie
16cc#	ist
=68	=68
cc#q	nah'
8ee	|
16dd#	und
16cc#	|
16b#	e-
16a	|
16g#	-wig
16b#	|
=69	=69
4cc#}	weit.}
8r	.
{16cc#	{sie
16cc#	ist
=70	=70
16cc#	nah
16ee	|
16dd#	und
16cc#	|
16b#	e-
16a	|
16g#	-wig
16b#	|
=71	=71
4cc#}	weit.}
8r	.
{16.cc#	{Seh-
32b	-nend
=72	=72
8.a#	breit
16b	ich
8.cc#	mei-
16dd	-ne
=73	=73
cc#q	Ar-
8b	|
8b}	-me}
8r	.
{16b	{nach
16b	dem
=74	=74
8.ee	teu-
16dd	-ren
8.cc#	Schat-
16dd	-ten-
=75	=75
8ee	-bild,
8dd}	|}
8r	.
{16dd	{ach,
16dd	ich
=76	=76
8.ccn	kann
16d#	es
8.d#	nicht
16cc#	er-
=77	=77
8b	-rei-
8e}	-chen,}
8r	.
{16e	{und
16e	das
=78	=78
8.f#	Herz
16f#	bleibt
8.a#	un-
16cc#	-ge-
=79	=79
eeq	-stillt,
4.dd}	|}
{16cc#	{und
16b	das
=80	=80
16f#	Herz
16dd	|
16cc#	bleibt
16b	|
16a#	un-
16g	|
16f#	-ge-
16a#	|
=81	=81
4b}	-stillt!}
4r	.
==	==
*-	*-